public/images/icons/Profile.svg

<svg width="337" height="384" viewBox="0 0 337 384" fill="none" xmlns="http://www.w3.org/2000/svg">
<g clip-path="url(#clip0_1539_6289)">
<path d="M8.28874 383.999C1.63874 380.919 -0.131256 375.629 -0.0012562 368.519C1.32874 299.609 53.7687 238.359 121.479 227.259C129.929 225.879 138.569 225.289 147.139 225.099C162.219 224.759 177.329 224.579 192.399 225.099C250.419 227.129 292.819 254.679 320.519 305.279C331.299 324.979 335.959 346.479 336.919 368.889C337.219 375.919 335.099 380.989 328.649 383.999H8.28874ZM23.1187 361.299H314.129C313.189 355.759 312.459 350.469 311.399 345.249C300.129 290.219 249.609 248.289 193.569 247.569C176.609 247.349 159.639 247.289 142.689 247.669C135.379 247.829 127.949 248.629 120.839 250.269C78.0387 260.159 48.3887 285.839 31.4087 326.289C26.7487 337.379 24.0887 349.019 23.1287 361.309L23.1187 361.299Z" fill="#612D8A"/>
<path d="M176.712 0C184.712 1.76 192.922 2.87 200.682 5.39C243.592 19.3 272.872 63.14 269.362 107.67C265.592 155.38 230.862 193.85 185.032 201.08C128.542 209.99 77.0419 172.2 68.3919 115.5C60.2619 62.17 98.3419 9.89 151.442 1.48C154.382 1.01 157.312 0.49 160.242 0C165.732 0 171.222 0 176.712 0ZM168.672 22.5C125.372 22.42 90.0019 57.64 89.8819 100.95C89.7619 144.34 124.862 179.82 168.092 179.99C211.542 180.16 247.022 144.83 247.072 101.34C247.122 57.97 211.922 22.58 168.672 22.49V22.5Z" fill="#612D8A"/>
</g>
<defs>
<clipPath id="clip0_1539_6289">
<rect width="336.96" height="384" fill="white"/>
</clipPath>
</defs>
</svg>

<?xml version="1.0" encoding="UTF-8"?><svg id="Layer_2" xmlns="http://www.w3.org/2000/svg" viewBox="0 0 336.96 384"><defs><style>.cls-1{fill:#2a578a;}</style></defs><g id="Layer_1-2"><path class="cls-1" d="m8.29,384C1.64,380.92-.13,375.63,0,368.52c1.33-68.91,53.77-130.16,121.48-141.26,8.45-1.38,17.09-1.97,25.66-2.16,15.08-.34,30.19-.52,45.26,0,58.02,2.03,100.42,29.58,128.12,80.18,10.78,19.7,15.44,41.2,16.4,63.61.3,7.03-1.82,12.1-8.27,15.11H8.29Zm14.83-22.7h291.01c-.94-5.54-1.67-10.83-2.73-16.05-11.27-55.03-61.79-96.96-117.83-97.68-16.96-.22-33.93-.28-50.88.1-7.31.16-14.74.96-21.85,2.6-42.8,9.89-72.45,35.57-89.43,76.02-4.66,11.09-7.32,22.73-8.28,35.02Z"/><path class="cls-1" d="m176.71,0c8,1.76,16.21,2.87,23.97,5.39,42.91,13.91,72.19,57.75,68.68,102.28-3.77,47.71-38.5,86.18-84.33,93.41-56.49,8.91-107.99-28.88-116.64-85.58C60.26,62.17,98.34,9.89,151.44,1.48,154.38,1.01,157.31.49,160.24,0c5.49,0,10.98,0,16.47,0Zm-8.04,22.5c-43.3-.08-78.67,35.14-78.79,78.45-.12,43.39,34.98,78.87,78.21,79.04,43.45.17,78.93-35.16,78.98-78.65.05-43.37-35.15-78.76-78.4-78.85Z"/></g></svg>
